X:1
T:A tout jamais
T:A tout jamais
T:Thomas Crecquillon
C:Thomas Crecquillon
%%score [ 1 [ 2 3 ] 4 ]
L:1/8
Q:1/4=86
M:2/2
K:F
V:1 treble nm="Superius" snm="S"
V:2 treble-8 nm="Tenor 1" snm="T 1"
V:3 treble-8 nm="Tenor 2" snm="T 2"
V:4 bass nm="Bass" snm="B"
V:1
 z8 | z8 | D3 E FG A2- | AG G4 F2 | G2 B2 B2 A2 | B6 A2 | G4 F2 F2 | F2 E2 D2 F2 | E2 D4 C2 | D8- | %10
w: ||A _ _ _ tout|_ _ ja- *|mais, d'ung vou- loir|im- mu-|a- ble, d'ung|vou- loir im- mu-|a- * *|ble|
 D4 z4 | z2 D2 F2 F2 | B,2 B2 B2 A2 | G2 F2 G4 | F2 A2 G4 | F4 z2 c2 | d6 c2 | B2 c3 B B2- | %18
w: _|la ser- vi-|ray com- me la|plus no- ta-||ble, com-|me le|plus no- * ta-|
 B2 A2 B4 | F4 G2 B2- | B2 A4 G2 | A4 z2 d2 | c2 B2 A2 G2- | GF F4 E2 | F4 z2 F2 | G2 B2 A4- | %26
w: * * ble|qui soit vi-||vant, de|joy- eulx en- tre-||tien, la|rai- son est,|
 A4 z2 F2 | B6 A2 | G2 G2 c3 B | AGFE D2 B2 | A2 G4 F2 | G2 B2 A2 G2- | GFED E4 | D2 A2 B4- | %34
w: _ la|rai- son|est, car son _|_ _ _ _ _ cueur|et _ le|mien, ne sont plus|_ _ _ _ _|qu'ung, ne sont|
 B2 B2 A4- | A4 z4 | z2 A2 A2 F2 | B2 B2 A4- | A2 G2 F2 E2 | D2 F2 E2 D2- | D2 C2 D2 B2 | %41
w: _ plus qu'ung,|_|par ung vou-|loir sem- bla-|||* * ble, ne|
 A2 G3 FED | E4 D2 A2 | B6 B2 | A8 | z4 z2 A2 | A2 F2 B2 B2 | A6 G2 | F2 E2 D2 F2 | E2 D4 C2 | %50
w: sont plus _ _ _|_ qu'ung, ne|sont plus|qu'ung,|par|ung vou- loir sem-|bla- ble|ne sont plus- *||
 D8- | D8- | D8- | D8 | B6 A2 |"^#" G4 F4- | F8 |] %57
w: qu'ung,|_|||à tout|ja- mais.|_|
V:2
 A6 F2 | B4 A4 | GA Bc de f2- | f2 d2 d4- | d4 z2 f2 | e2 d2 e2 f2 | e4 d3 c | A2 c2 B2 A2 | %8
w: A tout|ja- *|mais, _ _ _ _ _ _|_ _ _|* d'ung|vou- loir im- mu-|a- * *||
 c2 B2 A4 | F4 z2 d2 |"^b" f3 e d2 c2 | d3 c/B/ d2 c2 | d2 B2 f4 | e2 d4 c2 | d2 f4 e2 | f2 d2 c4 | %16
w: |ble la|ser vi- ray com-|me la _ plus no-|ta- * *||||
 B2 d2 f2 f2 |"^b" B2 f3 d e2 | f4 z2 d2 | d2 f2 e2 f2- | f2 f2 d3 e | f4 z2 f2 | f2 d2 e4 | %23
w: ble, com- me la|plus no- * ta-|ble qui|soit vi- * *||vant, de|joy- eulx en-|
 d4 c4 | A4 z2 d2 | e2 f2 f4 | c2 f4 d2- | d2 g4 f2 | e3 d c2 f2 | f6 g2 | e2 c2 d4 | z2 B2 c2 B2 | %32
w: tre- *|tien, la|rai- son est,|car- son cueur|_ et le|mien, _ _ car|son cueur|et le mien,|ne sont plus|
 c3 B AG g2- | g2 f2 g2 d2 | g3 f e4 | d4 z2 d2 | d2 c2 f4- | f2 e2 f4- | f2 e2 d2 c2 | %39
w: qu'ung, _ _ _ ne|_ sont plus _|_ _ _|qu'ung, par|ung vou- loir|_ sem- bla-||
 B2 F2 B2 G2 | A4 B4 | c2 B2 c3 B | AG g4 f2 | g2 d2 g3 f | e4 d4 | z2 d2 d2 c2 | f6 e2 | f6 e2 | %48
w: * * * ble,|ne sont|plus _ _ _|_ _ _ _||* qu'ung,|par ung vou-|moir sem-|bla- ble|
 d2 c2 B2 F2 | B2 G2 A4 | A6 F2 | B4 A4 | G2 DE FG A2- |"^#" A2 G4 F2 | G2 d2 d3 c | B4 A4- | A8 |] %57
w: ne sont plus _|_ _ _|qu'ung, à|tout ja-|||mais, à tout _|ja- mais.|_|
V:3
 D3 E FG A2- | AG G4 F2 | G3 F D2 d2 | c2 B2 A4 | G4 z2 c2 | c2 B2 c4- | c2 c2 A3 G | F2 G2 G2 F2 | %8
w: tout _ _ _ ja-|_ _ mais, *|d'ung _ _ _|_ _ _|* vou-|loir im- mu-|* a- ble *||
 G3 F E4 | D2 A2 B2 B2 | F2 B4 A2 | B2 G2 F2 f2- |"^b" f2 e2 d2 c2- | cB A4 G2 | A2 A2 c2 c2 | %15
w: |la ser- vi- ray|com- me la|plus no- ta- ble,|||la ser- vi- ray|
 F2 B4 A2 | B2 G2 F4 | G2 A2 B4 | c4 B2 F2 | B2 d2 c2 d2- | d2 c4 B2 | c2 d2 c2 B2 | A2 B2 c3 B | %23
w: com me la|plus no- ta-|ble * *|* qui soit|vi- vant, * *||de joy- eulx en-|tre- tien, la _|
 A2 B2 G4 | F4 A4 | c2 d2 c4 | z2 A2 d3 c | BA G4 c2 | c3 B AG F2- | F2 A2 Bc dB | cB AG A4 | %31
w: _ _ _|* rai-|son est, car|son cueur et|_ _ le mien,|car _ _ _ son|_ cueur et _ _ _|le _ _ _ mien,|
 G2 G2 F2 D2 | E2 G2 c3 B | A4 GA Bc |"^#" de d4 c2 | d2 A2 F2 B2 | A3 B c2 d2- | d2 cB c2 c2 | %38
w: ne sont plus qu'ung,|ne sont plus _|_ _ _ _ _|* * * qu'ung,|par ung vou- loir|sem- _ _ _|_ _ _ _ bla-|
 c3 B A3 G | F2 D2 GFED | E4 G4 | F2 D2 E2 G2 | c3 B A4 | GA Bc de d2- |"^#" d2 c2 d2 A2 | %45
w: ble, * * *||ne sont|plus qu'ung, _ _|_ _ _||* * par ung|
 F2 B2 A3 B | c2 d4 cB | c4 c3 B | A3 G F2 D2 | GFED E4 | D3 E FG A2- | A2 G4 F2 | G2 B2 A2 d2- | %53
w: vou- loir sem- _|_ _ _ _|bla- ble, *|* * ne sont|plus _ _ _ qu'ung,|à _ _ _ _|_ _ tout|ja- mais. * *|
 dc B2 A4 | G4 D4- | D8- | D8 |] %57
w: |* A|_||
V:4
 z4 D,4 | B,,4 D,4 | G,,4 z2 D,2 |"^#" F,2 G,2 D,4 | z2 G,2 G,2 F,2 | G,6 F,2 | C,4 D,2 D,2 | %7
w: tout|ja- mais,|à tout|ja- mais, d'ung|vou- loir im-|mu- a-|ble, d'ung vou-|
 D,2 C,2 D,4 | C,2 G,,2 A,,4 | D,4 z4 | D,4 F,2 F,2 | B,,2 B,2 B,2 A,2 | G,2 G,2 F,3 E, | %13
w: loir im- mu-|a- ble *|la|ser- vi- ray|com- me la plus|no- ta- ble, *|
 C,2 D,2 E,4 | D,4 z4 | D,4 F,2 F,2 | B,,2 B,2 B,2 A,2 | G,2 F,2 G,4 | F,4 B,,4- | B,,4 z2 B,,2 | %20
w: |la|ser- vi- ray|com- me la plus|no- ta- ble|* qui|_ soit|
 F,4 G,4 | F,2 D,2 F,2 B,,2 | F,2 G,2 C,4 | D,2 B,,2 C,4 | D,6 D,2 |"^#" C,2 B,,2 F,4 | %26
w: vi- vant,|de joy- eulx en-|tre- tien, la|_ _ _|* rai-|son est, car|
 z2 F,2 B,3 A, | G,F, _E,4 F,2 | C,2 C2 CB,A,G, | F,E, D,C, B,,A,, G,,2 | C,2 E,2 D,4 | %31
w: son cueur et|_ _ le mien,|car son cueur _ _ _|_ _ _ _ et _ _|le _ mien,|
 G,,4 z2 G,,2 | C,4 C,4 | D,2 D,2 G,4 | G,4 A,4 | z2 D,2 D,2 B,,2 | F,3 G, A,2 B,2 | G,4 F,2 F,2 | %38
w: ne sont|plus qu'un,|ne sont plus|qu'un, par|ung vou- loir|sem- _ _ _|_ _ bla-|
 F,2 C,2 D,2 A,,2 | B,,3 A,, G,,2 B,,2 | A,,4 G,,4 | z2 G,,2 C,4 | C,4 D,2 D,2 | G,4 G,4 | %44
w: ble, * * *||* ne|sont plus|qu'ung, ne sont|plus qu'ung,|
 A,4 z2 D,2 |"^#" D,2 B,,2 F,3 G, | A,2 B,2 G,4 | F,6 C,2 | D,2 A,,2 B,,3 A,, | G,,2 B,,2 A,,4 | %50
w: par ung|vou- loir sem- _|_ _ _|* bla-|ble, * ne sont|plus qu'ung, à|
 z4 D,4 | B,,4 D,4 | G,,4 z2 D,2 | F,2 G,2 D,4 | G,,3 A,, B,,C, D,2 | G,,4 D,4- | D,8 |] %57
w: tout|ja- mais,|à tout|ja- mais, a|tout _ _ _ ja-|mais. *||

